X:24
T: If You Knew Susie
I: If You Knew Susie	S-I	A	square
C: S-I
C: B.G. DeSylva, Joseph Meyer  \2511925
M: C|
Z: Transcribed to abc by Mary Lou Knack
R: square
K: A
E2|: "A"A4 B4| B2 A4 F2| G4 A4| A2 G6| F8| "A#o"F8| "E7"F2E2 G2F2-|
w: If| you knew| Sus-ie, Like| I know| Sus-ie| Oh,| Oh,| Oh what a girl!|
w:   |         |             |       |       |    |    |                |
      F6 E2|\
w: _ There's|
w:* She|
     "E7"G4 "Bm7"A4| "E7"A2 G4 E2| F4 G4| G2 F6| E8| E8| "A"C2D2 ^D2E2|
w: none so| clas-sy As| this fair| las-sie| Oh,| Oh!| Ho-ly Mo-ses|
w: wears long| tres-ses And| nice tight| dress-s| Oh,| Oh!| What a fut-ure|
     "Bm7"=F2^F2 "E7"=G2^G2|\
w: what a chas-sis!|
w: she po-ses-ses!|
     "A7"A4 B4| B2 A6| "D"B2A2 B2A2-| A8| "B7"B4 c4| c2 B6|
w: We went| rid-ing| She did-n't balk|_ | Back from| Yon-kers|
w: Out in| pub-lic| How she can yawn|_ | In a | par-lor|
     "E7"c2B2 c2B2| c2B2 G2E2|\
w: I'm the one who| had to walk! If |
w: You would think the| war was on! |
     "A"A4 B4| B2 A4 F2| "B7"B4 c4| c2 B6|
w: you knew| Sus-ie, Like| I know| Sus-ie|
      "Bm7-5"d8| "E7"c2=c2 ^c2A2-| "A"A8- |1 A2E2 "E7"F2G2 :|2 "A - Last time"A2z2 A2 |]
w: Oh,| oh what a girl!|_|_***|**
%%text 10/21/98
